; G-Code generated by Simplify3D(R) Version 5.1.0
; Aug 17, 2023 at 6:28:52 PM
; Settings Summary
;   processName,Process 1
;   targetModels,y_motor_mount_b
;   profileName,Robert Custom ABS
;   profileVersion,2023-08-17 18:28:47
;   app,S3D-Software 5.1.0
;   technology,fff
;   baseProfile,Default
;   extruder,Extruder 1
;   toolheadNumber,0
;   nozzleDiameter,0.40000
;   extrusionMultiplier,1.00000
;   extrusionWidthMode,manual
;   extrusionWidth,0.40000
;   useRetraction,1
;   retractDistance,2.50000
;   extraRestartDistance,0.00000
;   retractVerticalLift,0.00000
;   retractSpeed,1800.00000
;   useCoasting,0
;   coastingDistance,0.20000
;   useWiping,0
;   wipingDistance,5.00000
;   speedMaxFlowRate,1000.00000
;   toolheadOffsetX,0.00000
;   toolheadOffsetY,0.00000
;   filamentDiameter,1.75000
;   filamentPricePerKilogram,46.00000
;   filamentDensity,1.25000
;   primaryExtruder,Extruder 1
;   layerHeight,0.20000
;   topSolidLayers,5
;   bottomSolidLayers,5
;   outlinePerimeters,4
;   useVaseMode,0
;   useAdaptiveLayerHeights,0
;   minAdaptiveLayerHeight,0.10000
;   maxAdaptiveLayerHeight,0.30000
;   adaptiveSmoothingLevel,5
;   horizontalOuterCompensation,0.00000
;   horizontalInnerCompensation,0.00000
;   firstLayerUnits,percentage
;   firstLayerHeightPercentage,90
;   firstLayerWidthPercentage,105
;   firstLayerSpeedPercentage,20
;   firstLayerHeightAbsolute,0.30000
;   firstLayerWidthAbsolute,0.40000
;   firstLayerSpeedAbsolute,900.00000
;   startPointStrategy,random
;   alignStartPointsX,0.00000
;   alignStartPointsY,0.00000
;   restrictStartPoints,1
;   perimeterPrintingOrder,inside_out
;   islandPrintingOrder,closest
;   printInfillBeforePerimeters,0
;   useSkirt,1
;   skirtExtruder,Extruder 1
;   skirtLayers,2
;   skirtOffset,8.00000
;   skirtOutlines,2
;   useRaft,0
;   raftExtruder,Extruder 1
;   raftBaseLayers,2
;   raftTopLayers,3
;   raftOffset,3.00000
;   raftSeparationDistance,0.14000
;   raftSpeedUnits,percentage
;   raftSpeedPercentage,30
;   raftSpeedAbsolute,600.00000
;   usePrimePillar,0
;   primePillarExtruder,All Extruders
;   primePillarWidth,12.00000
;   primePillarLocation,north_west
;   primePillarSpeedPercentage,100
;   primePillarInfillPercentage,100
;   autoStopPrimePillar,1
;   primePillarLayersAfterAutoStop,0
;   useOozeShield,0
;   oozeShieldExtruder,All Extruders
;   oozeShieldOffset,6.00000
;   oozeShieldOutlines,2
;   oozeShieldSidewallShape,waterfall
;   oozeShieldSidewallAngle,30
;   oozeShieldSpeedPercentage,100
;   autoStopOozeShield,1
;   oozeShieldLayersAfterAutoStop,0
;   sparseInfillExtruder,Extruder 1
;   sparseInfillPattern,grid
;   sparseInfillRotation,0
;   sparseInfillPercentage,40
;   sparseInfillExtrusionWidthPercentage,100
;   sparseInfillCombinedLayers,1
;   denseInfillLayers,0
;   denseInfillPercentage,50
;   infillOutlineOverlapPercentage,15
;   minInfillLength,5.00000
;   externalInfillPattern,rectilinear
;   externalInfillRotation,0
;   solidInfillThresholdArea,25.00000
;   solidInfillExtraExpansion,0.00000
;   useMonotonic,0
;   useDiaphragm,0
;   diaphragmSolidLayers,3
;   diaphragmSpacingLayers,20
;   topLayerExtraExpansion,1.00000
;   topLayerExtrusionModifier,100
;   overrideFanSpeedForTopLayer,0
;   topLayerFanSpeedPercentage,100
;   useIroning,0
;   ironingOutlineOffsetPercentage,50
;   ironingExtrusionWidthPercentage,25
;   ironingExtrusionModifier,15
;   ironingSpeedModifier,30
;   sparseSupportExtruder,Extruder 1
;   sparseSupportInfillPattern,grid
;   sparseSupportInfillRotation,0
;   sparseSupportInfillPercentage,30
;   sparseSupportOutlines,0
;   sparseSupportCombinedLayers,1
;   upperDenseSupportLayers,0
;   lowerDenseSupportLayers,0
;   denseSupportExtruder,Extruder 1
;   denseSupportInfillPercentage,20
;   denseSupportExtraExpansion,0.00000
;   baseSupportLayers,0
;   supportInflationDistance,0.00000
;   supportHorizontalPartOffset,0.40000
;   supportUpperSeparationLayers,3
;   supportLowerSeparationLayers,3
;   temperatureController,Extruder 1
;   enableTemperatureController,1
;   temperatureNumber,0
;   temperatureType,extruder
;   stabilizeAtStartup,1
;   temperatureSetpoints,1|250
;   useIdleCooldown,0
;   cooldownTemperature,150
;   cooldownRequiredIdleTime,180
;   cooldownReheatTime,60
;   temperatureController,Heated Bed
;   enableTemperatureController,1
;   temperatureNumber,0
;   temperatureType,platform
;   stabilizeAtStartup,1
;   temperatureSetpoints,1|100
;   useIdleCooldown,0
;   cooldownTemperature,150
;   cooldownRequiredIdleTime,180
;   cooldownReheatTime,60
;   fan,Cooling Fan
;   fanNumber,0
;   fanType,extruder
;   blipFanToFullPower,0
;   fanSetpoints,2|1
;   increaseFanForQuickLayers,0
;   fanMaxQuickLayerTime,45.00000
;   fanMinQuickLayerTime,15.00000
;   maxQuickLayerFanSpeedPercentage,100
;   defaultPrintSpeed,4000.00000
;   outerPerimeterSpeedPercentage,30
;   innerPerimeterSpeedPercentage,80
;   topLayerSpeedPercentage,20
;   solidInfillSpeedPercentage,80
;   sparseSupportSpeedPercentage,80
;   denseSupportSpeedPercentage,70
;   travelSpeedXY,4600.00000
;   travelSpeedZ,900.00000
;   reduceSpeedForQuickLayers,1
;   speedMaxQuickLayerTime,15.00000
;   minQuickLayerSpeedPercentage,20
;   reduceSpeedForShortPerimeters,1
;   speedMaxShortPerimeterLength,80.00000
;   minShortPerimeterSpeedPercentage,50
;   reduceSpeedForMaxFlowRate,0
;   accelXY,1000.00000
;   accelZ,150.00000
;   accelE,3000.00000
;   jerkXY,600.00000
;   jerkZ,24.00000
;   jerkE,300.00000
;   exportFileFormat,gcode
;   useStickyCommands,1
;   use5D,1
;   relativeExtrusionDistances,0
;   allowExtruderAxisZeroing,1
;   independentExtruderAxes,0
;   includeM10123,0
;   includeThumbnailImages,0
;   thumbnailImageEncoding,standard
;   thumbnailImageSizes,300|300
;   x3gMachineProfile,r2
;   overrideStepsPerMillimeter,0
;   stepsPerMillimeterX,88.57319
;   stepsPerMillimeterY,88.57319
;   stepsPerMillimeterZ,400.00000
;   stepsPerMillimeterA,96.27520
;   stepsPerMillimeterB,96.27520
;   xyzFileFormatVersion,1
;   makerBotMachineProfile,replicator_5
;   makerBotModelExtruder,mk13
;   makerBotSupportExtruder,mk14_s
;   makerBotModelMaterial,pla
;   makerBotSupportMaterial,pva
;   globalOffsetX,0.00000
;   globalOffsetY,0.00000
;   globalOffsetZ,0.00000
;   applyToolheadOffsets,0
;   buildVolumeShape,rectangular
;   buildVolumeX,220.00000
;   buildVolumeY,220.00000
;   buildVolumeZ,150.00000
;   buildVolumeDiameter,200.00000
;   originOffsetX,0.00000
;   originOffsetY,0.00000
;   originOffsetZ,0.00000
;   homingDirectionX,min
;   homingDirectionY,min
;   homingDirectionZ,min
;   mirrorVisualX,0
;   mirrorVisualY,1
;   mirrorVisualZ,0
;   machineBackgroundModel,
;   startingScript,G28|M117 Pre-heating hotend...|M104 S 180|G4 S5|M117 Heating bed...|M190 S110|M117 Waiting 15sec...|G4 S15|M117 Updating bed mesh... |G29|M117 Heating hotend...|M109 S225|M117 Priming nozzle...|G92 E0 ; reset extrusion distance|G1 X5 Y0 F10000 ; Move to the front of the bed|G1 Z0 F800; lower z|G1 X150 E20 F1500 ; move X-carriage 100mm while purging 12mm of filament|G92 E0 ; reset extrusion distance|M117 Starting Print.
;   preLayerChangeScript,
;   postLayerChangeScript,
;   preRetractionScript,
;   postRetractionScript,
;   preToolChangeScript,
;   postToolChangeScript,
;   processChangeScript,
;   endingScript,
;   postProcessingScript,"""curl.exe"" -i -X POST -H ""Content-Type: multipart/form-data"" -H ""x-api-key: e725d90a-4487-4ce2-a455-182e2d07742e"" -F ""a=upload"" -F ""filename=@[output_filepath]"" ""http://192.168.50.15:3344/printer/model/Custom_3D_Printer_001"""
;   useBridging,1
;   bridgingThresholdArea,50.00000
;   bridgingInfillExtraExpansion,0.00000
;   bridgingExtrusionModifier,100
;   bridgingSpeedModifier,100
;   overrideFanSpeedForBridging,0
;   bridgingFanSpeedPercentage,100
;   useFixedBridgingAngle,0
;   fixedBridgingAngle,0
;   applyBridgingToPerimeters,0
;   bridgingPerimeterExtraOverlap,0.00000
;   minBridgingPerimeterLength,10.00000
;   useToolChangeRetraction,1
;   toolChangeRetractDistance,12.00000
;   toolChangeExtraRestartDistance,-0.50000
;   toolChangeRetractSpeed,600.00000
;   toolChangePrimeOnFirstUse,0
;   toolChangeRetractAtEnd,0
;   externalThinWallType,perimeters_only
;   internalThinWallType,gap_fill
;   thinWallAllowedOverlapPercentage,10
;   singleExtrusionMinLength,1.00000
;   singleExtrusionMinWidthPercentage,50
;   singleExtrusionMaxWidthPercentage,200
;   singleExtrusionEndpointExtensionDistance,0.20000
;   onlyRetractWhenCrossingOutlines,1
;   retractBetweenLayers,1
;   retractOnTopLayers,0
;   useRetractionMinTravel,0
;   retractionMinTravel,3.00000
;   useRetractionMinExtrusion,0
;   retractionMinExtrusion,3.00000
;   onlyVerticalLiftOnTopLayers,0
;   retractWhileWiping,0
;   wipingMode,outer_perimeter
;   avoidCrossingOutlines,0
;   maxMovementDetourFactor,3.00000
;   openLoopSlicingBehavior,heal
;   openLoopThickenWidth,0.50000
;   slicingRegionRepairMode,positive
G90
M82
M106 S0 P0
M140 S100
M190 S100
M104 S250 T0
M109 S250 T0
G28
M117 Pre-heating hotend...
M104 S 180
G4 S5
M117 Heating bed...
M190 S110
M117 Waiting 15sec...
G4 S15
M117 Updating bed mesh... 
G29
M117 Heating hotend...
M109 S225
M117 Priming nozzle...
G92 E0 ; reset extrusion distance
G1 X5 Y0 F10000 ; Move to the front of the bed
G1 Z0 F800; lower z
G1 X150 E20 F1500 ; move X-carriage 100mm while purging 12mm of filament
G92 E0 ; reset extrusion distance
M117 Starting Print.
; process Process 1
; layer 1, Z = 0.1800
T0
G92 E0.00000
G1 E-2.50000 F1800
; feature skirt
; tool H0.1800 W0.420
G1 Z0.1800 F900
G1 X78.777 Y67.341 F4600
G92 E0.00000
G1 E2.50000 F1800
G92 E0.00000
G1 X79.415 Y66.613 E0.03043 F800
G1 X79.979 Y66.077 E0.05488
G1 X81.131 Y65.163 E0.10111
G1 X82.127 Y64.570 E0.13755
G1 X83.656 Y63.919 E0.18977
G1 X84.774 Y63.612 E0.22621
G1 X86.133 Y63.429 E0.26931
G1 X86.711 Y63.390 E0.28751
G1 X133.289 Y63.390 E1.75152
G1 X133.867 Y63.429 E1.76971
G1 X135.226 Y63.612 E1.81281
G1 X136.344 Y63.919 E1.84926
G1 X137.739 Y64.513 E1.89691
G1 X138.500 Y64.932 E1.92422
G1 X139.388 Y65.544 E1.95812
G1 X139.992 Y66.047 E1.98280
G1 X140.956 Y67.011 E2.02567
G1 X141.616 Y67.860 E2.05946
G1 X142.398 Y69.175 E2.10755
G1 X142.801 Y70.070 E2.13839
G1 X143.171 Y71.228 E2.17661
G1 X143.345 Y72.020 E2.20211
G1 X143.478 Y73.114 E2.23674
G1 X143.510 Y73.638 E2.25323
G1 X143.510 Y126.037 E3.90017
G1 X143.389 Y127.885 E3.95840
G1 X143.165 Y129.268 E4.00243
G1 X142.837 Y130.564 E4.04443
G1 X142.332 Y132.031 E4.09319
G1 X142.110 Y132.558 E4.11118
G1 X141.419 Y133.939 E4.15972
G1 X141.206 Y134.316 E4.17332
G1 X140.457 Y135.463 E4.21637
G1 X139.516 Y136.668 E4.26445
G1 X139.164 Y137.066 E4.28112
G1 X137.934 Y138.273 E4.33530
G1 X136.881 Y139.126 E4.37789
G1 X135.650 Y139.961 E4.42464
G1 X134.449 Y140.637 E4.46796
G1 X132.645 Y141.417 E4.52975
G1 X132.102 Y141.605 E4.54781
G1 X130.542 Y142.028 E4.59860
G1 X129.980 Y142.141 E4.61662
G1 X128.616 Y142.316 E4.65985
G1 X128.612 Y144.884 E4.74056
G1 X128.528 Y145.752 E4.76798
G1 X128.242 Y147.231 E4.81533
G1 X128.016 Y148.012 E4.84087
G1 X127.441 Y149.464 E4.88998
G1 X127.078 Y150.179 E4.91517
G1 X126.395 Y151.274 E4.95574
G1 X125.924 Y151.920 E4.98087
G1 X125.329 Y152.619 E5.00973
G1 X124.501 Y153.444 E5.04647
G1 X123.228 Y154.618 E5.10087
G1 X122.853 Y154.766 E5.11354
G1 X122.468 Y155.067 E5.12893
G1 X119.734 Y156.010 E5.21983
G1 X100.266 Y156.010 E5.83170
G1 X97.532 Y155.067 E5.92260
G1 X97.147 Y154.765 E5.93800
G1 X96.771 Y154.618 E5.95067
G1 X95.499 Y153.444 E6.00506
G1 X94.673 Y152.621 E6.04171
G1 X94.076 Y151.920 E6.07067
G1 X93.605 Y151.274 E6.09579
G1 X92.922 Y150.179 E6.13636
G1 X92.559 Y149.464 E6.16155
G1 X91.984 Y148.011 E6.21066
G1 X91.758 Y147.231 E6.23619
G1 X91.472 Y145.752 E6.28355
G1 X91.388 Y144.884 E6.31096
G1 X91.384 Y142.312 E6.39181
G1 X89.674 Y142.075 E6.44607
G1 X88.336 Y141.737 E6.48943
G1 X86.869 Y141.232 E6.53820
G1 X86.342 Y141.010 E6.55618
G1 X84.914 Y140.296 E6.60636
G1 X84.453 Y140.028 E6.62311
G1 X83.311 Y139.267 E6.66627
G1 X82.158 Y138.351 E6.71253
G1 X81.271 Y137.521 E6.75073
G1 X80.165 Y136.284 E6.80290
G1 X79.150 Y134.886 E6.85718
G1 X78.397 Y133.600 E6.90402
G1 X77.821 Y132.398 E6.94592
G1 X77.328 Y131.091 E6.98981
G1 X76.870 Y129.429 E7.04401
G1 X76.611 Y127.887 E7.09316
G1 X76.490 Y126.037 E7.15143
G1 X76.490 Y73.638 E8.79837
G1 X76.522 Y73.114 E8.81485
G1 X76.655 Y72.021 E8.84949
G1 X76.829 Y71.228 E8.87500
G1 X77.199 Y70.069 E8.91322
G1 X77.602 Y69.175 E8.94405
G1 X78.312 Y67.982 E8.98768
G1 X78.777 Y67.341 E9.01257
G92 E0.00000
G1 E-2.50000 F1800
G1 X79.105 Y67.604 F4600
G92 E0.00000
G1 E2.50000 F1800
G92 E0.00000
G1 X79.719 Y66.904 E0.02923 F800
G1 X80.255 Y66.394 E0.05249
G1 X81.370 Y65.509 E0.09723
G1 X82.318 Y64.946 E0.13190
G1 X83.795 Y64.317 E0.18235
G1 X84.858 Y64.025 E0.21702
G1 X86.175 Y63.847 E0.25879
G1 X86.725 Y63.810 E0.27610
G1 X133.275 Y63.810 E1.73922
G1 X133.825 Y63.847 E1.75653
G1 X135.142 Y64.025 E1.79830
G1 X136.206 Y64.317 E1.83298
G1 X137.555 Y64.891 E1.87908
G1 X138.279 Y65.290 E1.90506
G1 X139.134 Y65.879 E1.93769
G1 X139.708 Y66.357 E1.96117
G1 X140.641 Y67.290 E2.00262
G1 X141.268 Y68.097 E2.03476
G1 X142.025 Y69.369 E2.08128
G1 X142.408 Y70.220 E2.11062
G1 X142.765 Y71.337 E2.14747
G1 X142.930 Y72.091 E2.17173
G1 X143.060 Y73.152 E2.20534
G1 X143.090 Y73.650 E2.22102
G1 X143.090 Y126.023 E3.86714
G1 X142.971 Y127.838 E3.92430
G1 X142.753 Y129.183 E3.96713
G1 X142.434 Y130.443 E4.00800
G1 X141.939 Y131.881 E4.05577
G1 X141.729 Y132.383 E4.07288
G1 X141.048 Y133.742 E4.12066
G1 X140.847 Y134.098 E4.13350
G1 X140.115 Y135.218 E4.17557
G1 X139.193 Y136.400 E4.22268
G1 X138.860 Y136.776 E4.23848
G1 X137.654 Y137.959 E4.29157
G1 X136.630 Y138.788 E4.33298
G1 X135.429 Y139.604 E4.37862
G1 X134.262 Y140.260 E4.42069
G1 X132.493 Y141.026 E4.48128
G1 X131.978 Y141.203 E4.49839
G1 X130.445 Y141.619 E4.54831
G1 X129.912 Y141.727 E4.56542
G1 X128.197 Y141.946 E4.61977
G1 X128.192 Y144.863 E4.71147
G1 X128.112 Y145.692 E4.73764
G1 X127.834 Y147.133 E4.78376
G1 X127.618 Y147.876 E4.80807
G1 X127.058 Y149.292 E4.85594
G1 X126.712 Y149.972 E4.87993
G1 X126.047 Y151.039 E4.91945
G1 X125.594 Y151.660 E4.94359
G1 X125.020 Y152.334 E4.97142
G1 X124.210 Y153.141 E5.00737
G1 X123.001 Y154.256 E5.05904
G1 X122.643 Y154.397 E5.07117
G1 X122.264 Y154.693 E5.08626
G1 X119.663 Y155.590 E5.17274
G1 X100.337 Y155.590 E5.78019
G1 X97.736 Y154.693 E5.86666
G1 X97.357 Y154.397 E5.88177
G1 X96.998 Y154.256 E5.89389
G1 X95.790 Y153.141 E5.94556
G1 X94.982 Y152.336 E5.98142
G1 X94.406 Y151.660 E6.00934
G1 X93.953 Y151.039 E6.03348
G1 X93.288 Y149.972 E6.07299
G1 X92.942 Y149.292 E6.09699
G1 X92.382 Y147.875 E6.14486
G1 X92.166 Y147.133 E6.16916
G1 X91.888 Y145.692 E6.21529
G1 X91.808 Y144.863 E6.24146
G1 X91.804 Y141.946 E6.33315
G1 X89.754 Y141.662 E6.39818
G1 X88.456 Y141.334 E6.44025
G1 X87.019 Y140.839 E6.48803
G1 X86.517 Y140.629 E6.50514
G1 X85.114 Y139.926 E6.55446
G1 X84.675 Y139.672 E6.57040
G1 X83.558 Y138.927 E6.61260
G1 X82.433 Y138.033 E6.65777
G1 X81.571 Y137.227 E6.69485
G1 X80.492 Y136.020 E6.74575
G1 X79.502 Y134.655 E6.79873
G1 X78.768 Y133.403 E6.84436
G1 X78.207 Y132.233 E6.88515
G1 X77.727 Y130.961 E6.92786
G1 X77.281 Y129.338 E6.98078
G1 X77.029 Y127.838 E7.02858
G1 X76.910 Y126.023 E7.08575
G1 X76.910 Y73.651 E8.73186
G1 X76.940 Y73.153 E8.74754
G1 X77.070 Y72.091 E8.78116
G1 X77.235 Y71.337 E8.80543
G1 X77.592 Y70.220 E8.84228
G1 X77.975 Y69.369 E8.87161
G1 X78.663 Y68.213 E8.91389
G1 X79.105 Y67.604 E8.93756
G92 E0.00000
G1 E-2.50000 F1800
; feature inner perimeter
G1 X118.530 Y132.120 F4600
G92 E0.00000
G1 E2.50000 F1800
G92 E0.00000
G1 X118.530 Y144.066 E0.37546 F640
G1 X118.517 Y144.338 E0.38402
G1 X118.484 Y144.574 E0.39151
G1 X118.428 Y144.805 E0.39899
G1 X118.351 Y145.030 E0.40647
G1 X118.253 Y145.247 E0.41396
G1 X118.135 Y145.454 E0.42144
G1 X117.948 Y145.720 E0.43165
G1 X113.186 Y145.720 E0.58133
G1 X113.360 Y145.217 E0.59806
G1 X113.452 Y144.763 E0.61263
G1 X113.480 Y144.349 E0.62566
G1 X113.480 Y139.251 E0.78590
G1 X113.452 Y138.837 E0.79893
